X: 0015
T: 687. Polska efter Halvar B\"ackman
O: efter Magnus Engzelius
%R: polska
B: Paul B\"ackstr\"om's "L\aatar fr\aan Dalarna" collection" 1974
Z: 2022 John Chambers <jc:trillian.mit.edu>
M: 3/4
L: 1/16
P: A-bas
Q: "S.L."
K: Am
%%slurgraces 1
%%graceslurs 1
% - - - - - - - - - -
|:\
("_>"A2{B}A^G A3)(^c [e3A3])[eA] | ("^>"[g3A3](3{a}g/f/e/ d3)(e ^c3)B |\
("^>"A2{B}A^G A3)(^c "^>"[e3A3])[eA] | ("^>"[g3A3](3{a}g/f/e/ d3)e "^>"=c3e |\
{e}"^>"d2.B.d (3.c2.A2.c2 "_>"B3^G |
(3(A2B2c2) [A8A,8] ::\
(B3d) (3c2A2c2 "_>"B3^G | (3(A2B2c2) A3A ^G4 |\
B3d (3c2A2c2 (3B2=G2B2 | A3^c Me8 |\
{c}B3d (3c2A2c2 "_>"B3^G | (A2B2c2) [A8A,8] :|
% - - - - - - - - - -
%%text Jmf. S.L. nr 479, K.E.F. nr 15
